icons/svg/functional-icons/train_station_disused.svg

<?xml version="1.0" encoding="UTF-8" standalone="no"?>
<!-- Created with Inkscape (http://www.inkscape.org/) -->

<svg
   xmlns:dc="http://purl.org/dc/elements/1.1/"
   xmlns:cc="http://creativecommons.org/ns#"
   xmlns:rdf="http://www.w3.org/1999/02/22-rdf-syntax-ns#"
   xmlns:svg="http://www.w3.org/2000/svg"
   xmlns="http://www.w3.org/2000/svg"
   xmlns:sodipodi="http://sodipodi.sourceforge.net/DTD/sodipodi-0.dtd"
   xmlns:inkscape="http://www.inkscape.org/namespaces/inkscape"
   version="1.0"
   width="580"
   height="580"
   id="svg2"
   sodipodi:version="0.32"
   inkscape:version="0.92.3 (2405546, 2018-03-11)"
   sodipodi:docname="train_station_disused.svg"
   inkscape:output_extension="org.inkscape.output.svg.inkscape">
  <metadata
     id="metadata2975">
    <rdf:RDF>
      <cc:Work
         rdf:about="">
        <dc:format>image/svg+xml</dc:format>
        <dc:type
           rdf:resource="http://purl.org/dc/dcmitype/StillImage" />
        <cc:license
           rdf:resource="http://web.resource.org/cc/PublicDomain" />
        <dc:language>en</dc:language>
        <dc:title />
      </cc:Work>
    </rdf:RDF>
  </metadata>
  <sodipodi:namedview
     inkscape:window-height="1006"
     inkscape:window-width="1920"
     inkscape:pageshadow="2"
     inkscape:pageopacity="0.0"
     guidetolerance="10.0"
     gridtolerance="10.0"
     objecttolerance="10.0"
     borderopacity="1.0"
     bordercolor="#666666"
     pagecolor="#ffffff"
     id="base"
     inkscape:zoom="0.92167712"
     inkscape:cx="284.78014"
     inkscape:cy="318.51092"
     inkscape:window-x="1920"
     inkscape:window-y="0"
     inkscape:current-layer="svg2"
     showgrid="false"
     inkscape:window-maximized="1" />
  <defs
     id="defs4">
    <inkscape:perspective
       sodipodi:type="inkscape:persp3d"
       inkscape:vp_x="0 : 290 : 1"
       inkscape:vp_y="0 : 1000 : 0"
       inkscape:vp_z="580 : 290 : 1"
       inkscape:persp3d-origin="290 : 193.33333 : 1"
       id="perspective2441" />
    <inkscape:perspective
       id="perspective3452"
       inkscape:persp3d-origin="30 : 20 : 1"
       inkscape:vp_z="60 : 30 : 1"
       inkscape:vp_y="0 : 1000 : 0"
       inkscape:vp_x="0 : 30 : 1"
       sodipodi:type="inkscape:persp3d" />
    <symbol
       viewBox="244.5 110 489 219.9"
       id="symbol-university">
      <path
         id="path4460"
         d="M79,43l57,119c0,0,21-96,104-96s124,106,124,106l43-133l82-17L0,17L79,43z" />
      <path
         id="path4462"
         d="M94,176l-21,39"
         stroke-width="20"
         stroke="#000000"
         fill="none" />
      <path
         id="path4464"
         d="M300,19c0,10.5-22.6,19-50.5,19S199,29.5,199,19s22.6-19,50.5-19S300,8.5,300,19z" />
      <path
         id="path4466"
         d="M112,216l-16-38L64,88c0,0-9-8-4-35s16-24,16-24"
         stroke-width="20"
         stroke="#000000"
         ill="none" />
    </symbol>
    <inkscape:perspective
       id="perspective4471"
       inkscape:persp3d-origin="372.04724 : 350.78739 : 1"
       inkscape:vp_z="744.09448 : 526.18109 : 1"
       inkscape:vp_y="0 : 1000 : 0"
       inkscape:vp_x="0 : 526.18109 : 1"
       sodipodi:type="inkscape:persp3d" />
    <inkscape:perspective
       id="perspective4668"
       inkscape:persp3d-origin="6 : 4 : 1"
       inkscape:vp_z="12 : 6 : 1"
       inkscape:vp_y="0 : 1000 : 0"
       inkscape:vp_x="0 : 6 : 1"
       sodipodi:type="inkscape:persp3d" />
    <inkscape:perspective
       id="perspective2469"
       inkscape:persp3d-origin="225 : 120 : 1"
       inkscape:vp_z="450 : 180 : 1"
       inkscape:vp_y="0 : 1000 : 0"
       inkscape:vp_x="0 : 180 : 1"
       sodipodi:type="inkscape:persp3d" />
  </defs>
  <path
     style="fill:#fefefe;fill-opacity:1;fill-rule:evenodd;stroke:#fefefe;stroke-width:10;stroke-linecap:butt;stroke-linejoin:miter;stroke-miterlimit:4;stroke-dasharray:none;stroke-opacity:1"
     d="m 93.353408,84.406559 c -11.085521,0 -16.552785,9.07108 -21.090072,18.367661 -18.504426,44.47962 -37.157745,77.00657 -43.937652,137.499 -1.399502,42.60568 -3.516771,84.85382 -2.963638,128.43579 2.22e-4,25.77291 30.051611,65.33788 55.240828,65.33787 H 560.91894 v -48.17634 c -0.96238,-0.23468 -1.90495,-0.49085 -2.86025,-0.75814 v -43.48966 l 2.86025,0.55137 V 328.6999 C 461.52278,297.03771 377.68684,232.68301 331.44379,118.86746 323.43945,98.350135 307.6848,85.816975 286.85138,84.406559 Z m -1.55074,28.602551 H 278.78753 c 12.17008,10e-6 22.88743,45.89472 31.66957,69.3698 2.79516,7.62889 0.60015,19.84948 -5.30698,19.84948 H 61.890604 c -5.596716,1e-4 -7.897173,-9.9979 -5.548206,-19.26365 11.82539,-23.31234 25.326666,-69.95563 35.46027,-69.95563 z M 352.29263,213.87617 c 13.68244,13.26427 28.3916,31.48285 41.0774,39.80234 v 80.81082 l -37.01101,-16.95476 c -3.51841,-34.11284 -3.85639,-68.88374 -4.06639,-103.6584 z m 62.2364,58.65246 c 15.30121,12.99444 21.58001,15.5566 34.80551,25.22538 l 0.55137,62.20193 -35.35688,-14.81819 c -0.82013,-34.11288 0.20999,-37.83446 0,-72.60912 z M 82.773911,296.20327 c 0.378719,-0.0192 0.75375,0 1.13721,0 12.270924,1e-4 22.227279,9.92209 22.227279,22.19282 1.9e-4,12.27081 -9.956579,22.22728 -22.227279,22.22728 -12.270503,10e-5 -22.227283,-9.95655 -22.227283,-22.22728 1.48e-4,-11.88719 9.349784,-21.59935 21.090073,-22.19282 z m 183.469849,0 c 0.37872,-0.0192 0.75375,0 1.13721,0 12.27098,1e-4 22.22728,9.92209 22.22728,22.19282 2.3e-4,12.27081 -9.95659,22.22728 -22.22728,22.22728 -12.27044,10e-5 -22.22728,-9.95655 -22.22728,-22.22728 2.2e-4,-11.88719 9.34979,-21.59935 21.09007,-22.19282 z m 201.35506,12.61269 34.56428,14.09451 v 51.13998 c -12.67521,-1.38433 -24.42958,-4.30337 -34.56428,-9.75244 z m 48.86556,20.98669 27.46534,7.06449 v 46.34991 c -9.36504,-0.41932 -18.60537,-1.47786 -27.46534,-4.92791 z"
     id="path2251"
     sodipodi:nodetypes="ccccccccccccccccccccccccccccccccssssccssssccccccccccc"
     inkscape:connector-curvature="0" />
  <path
     style="fill:#fefefe;fill-opacity:1;fill-rule:evenodd;stroke:#ffffff;stroke-width:1.10274887px;stroke-linecap:butt;stroke-linejoin:miter;stroke-opacity:1"
     d="m 242.91373,445.41898 v 22.9165 H 141.0473 V 445.4879 H 71.539657 v 23.12327 h -46.14315 l -0.06892,32.53109 H 350.05268 C 395.7468,480.5613 475.57833,454.61303 560.91894,451.02343 v -5.60445 z"
     id="path2283"
     sodipodi:nodetypes="cccccccccccc"
     inkscape:connector-curvature="0" />
</svg>

<svg width="580" height="580" viewBox="0 0 580 580" fill="none" xmlns="http://www.w3.org/2000/svg">
<path fill-rule="evenodd" clip-rule="evenodd" d="M93.3535 84.4062C82.2679 84.4062 76.8007 93.4773 72.2634 102.774C53.759 147.254 35.1056 179.78 28.3257 240.273C26.9262 282.879 24.809 325.127 25.3621 368.709C25.3623 394.482 55.4137 434.047 80.6029 434.047H560.919V385.87C559.957 385.636 559.014 385.379 558.059 385.112V341.622L560.919 342.174V328.7C461.523 297.037 377.687 232.683 331.444 118.867C323.44 98.3498 307.685 85.8167 286.851 84.4062H93.3535ZM91.8027 113.009H278.788C290.958 113.009 301.675 158.904 310.457 182.379C313.252 190.007 311.057 202.228 305.15 202.228H61.8907C56.2939 202.228 53.9935 192.23 56.3424 182.964C68.1678 159.652 81.6691 113.009 91.8027 113.009V113.009ZM352.293 213.876C365.975 227.14 380.684 245.359 393.37 253.678V334.489L356.359 317.534C352.841 283.421 352.503 248.651 352.293 213.876V213.876ZM414.529 272.528C429.83 285.523 436.109 288.085 449.335 297.754L449.886 359.956L414.529 345.137C413.709 311.025 414.739 307.303 414.529 272.528V272.528ZM82.774 296.203C83.1527 296.184 83.5277 296.203 83.9112 296.203C96.1821 296.203 106.138 306.125 106.138 318.396C106.139 330.667 96.1819 340.623 83.9112 340.623C71.6407 340.623 61.6839 330.667 61.6839 318.396C61.684 306.509 71.0337 296.796 82.774 296.203ZM266.244 296.203C266.623 296.184 266.998 296.203 267.381 296.203C279.652 296.203 289.608 306.125 289.608 318.396C289.609 330.667 279.652 340.623 267.381 340.623C255.111 340.623 245.154 330.667 245.154 318.396C245.154 306.509 254.504 296.796 266.244 296.203ZM467.599 308.816L502.163 322.91V374.05C489.488 372.666 477.734 369.747 467.599 364.298V308.816ZM516.464 329.802L543.93 336.867V383.217C534.565 382.797 525.324 381.739 516.464 378.289V329.802Z" fill="#FEFEFE" stroke="#FEFEFE" stroke-width="10"/>
<path fill-rule="evenodd" clip-rule="evenodd" d="M242.914 445.419V468.335H141.047V445.488H71.5397V468.611H25.3966L25.3276 501.142H350.053C395.747 480.561 475.578 454.613 560.919 451.023V445.419H242.914Z" fill="#FEFEFE" stroke="white" stroke-width="1.10275"/>
</svg>
